X:85
T: Es war einmal ein kleiner Mann (Band 1), S. 236
N: P0860
O: Lothringen
S: PINCK, Louis: Verklingende Weisen, Bd 1, Metz 1928]
R: Spottlied]
M: 3/8
L: 1/16
K: G
D2 | G3GGG | G2E2E2 | E4E2 | D4
D2 | F3GA2 | G2ABB2 | A2AAB2 | G2B2d2 | z4
D2 | G3AB2 | G2B2d2 | A2A2F2 | G4

